X:126
T:Green Mountain, The
R:reel
H:Second part very similar to second part of "Broderick's", #85
D:Matt Molloy and Sean Keane: Contentment is Wealth
Z:id:hn-reel-126
M:C|
K:D
AF~F2 AFEF | DF~F2 ABde | ~f3d efdB | Adfd edBd |
AF~F2 AFEF | DF~F2 ABde | ~f3d efdB |1 AFEF D2dB :|2 AFEF D3e ||
|: fa~a2 bafe | f2af efde | f2df efdB | Adfd edBd |
fa~a2 bafe | f2af efde | f2df efdB |1 AFEF D3e :|2 AFEF D2dB ||
P:variations
|: AF~F2 AFEF | DF~F2 ABde | f2df efdB | Adfd efdB |
AF~F2 AFEF | DF~F2 ABde | fedf efdB |1 AFEF D2dB :|2 AFEF D3e ||
|: faaf bfaf | defd e2de | ~f3d efdB | Adfd efde |
faaf b2af | defd e2de | fedf efdB |1 AFEF D3e :|2 AFEF D2dB ||


